docs/images/icons/upload-file.svg

<svg width="20.000000" height="20.000000" viewBox="0 0 20 20" fill="none" xmlns="http://www.w3.org/2000/svg" xmlns:xlink="http://www.w3.org/1999/xlink">
	<desc>
			Created with Pixso.
	</desc>
	<defs/>
	<path id="Vector" d="M10.345 4.1665L17.5 4.1665C17.721 4.1665 17.933 4.25439 18.0893 4.41064C18.2456 4.56689 18.3334 4.77881 18.3334 5L18.3334 16.6665C18.3334 16.8877 18.2456 17.0996 18.0893 17.2559C17.933 17.4121 17.721 17.5 17.5 17.5L2.50002 17.5C2.27901 17.5 2.06705 17.4121 1.91077 17.2559C1.75449 17.0996 1.66669 16.8877 1.66669 16.6665L1.66669 3.3335C1.66669 3.1123 1.75449 2.90039 1.91077 2.74414C2.06705 2.58789 2.27901 2.5 2.50002 2.5L8.67836 2.5L10.345 4.1665ZM3.33336 4.1665L3.33336 15.8335L16.6667 15.8335L16.6667 5.8335L9.65501 5.8335L7.98836 4.1665L3.33336 4.1665ZM10.8334 10.8335L10.8334 14.1665L9.16669 14.1665L9.16669 10.8335L6.66669 10.8335L10 7.5L13.3334 10.8335L10.8334 10.8335Z" fill="#BDBDC0" fill-opacity="1.000000" fill-rule="nonzero"/>
</svg>

<svg width="20" height="20" fill="none" xmlns="http://www.w3.org/2000/svg"><path d="M10.345 4.167H17.5a.834.834 0 0 1 .833.833v11.666a.833.833 0 0 1-.833.834h-15a.834.834 0 0 1-.833-.834V3.334A.833.833 0 0 1 2.5 2.5h6.178l1.667 1.667Zm-7.012 0v11.667h13.334v-10H9.655L7.988 4.167H3.333Zm7.5 6.667v3.332H9.167v-3.332h-2.5L10 7.5l3.333 3.334h-2.5Z" fill="#BDBDC0"/></svg>
